app/images/dest/grow.svg

<svg width="101" height="100" viewBox="0 0 101 100" fill="none" xmlns="http://www.w3.org/2000/svg">
<g opacity="0.1">
<circle cx="50.5" cy="50" r="50" fill="#2F70FE"/>
<circle cx="50.5" cy="50" r="50" stroke="#2F70FE"/>
</g>
<path d="M31.8333 69.167H70.1667" stroke="black" stroke-miterlimit="10" stroke-linecap="round" stroke-linejoin="round"/>
<path d="M38.5 60.8335H33.5V69.1668H38.5V60.8335Z" stroke="black" stroke-miterlimit="10" stroke-linecap="round" stroke-linejoin="round"/>
<path d="M48.5 52.5H43.5V69.1667H48.5V52.5Z" stroke="black" stroke-miterlimit="10" stroke-linecap="round" stroke-linejoin="round"/>
<path d="M58.5 55.8335H53.5V69.1668H58.5V55.8335Z" stroke="black" stroke-miterlimit="10" stroke-linecap="round" stroke-linejoin="round"/>
<path d="M68.5 44.167H63.5V69.167H68.5V44.167Z" stroke="black" stroke-miterlimit="10" stroke-linecap="round" stroke-linejoin="round"/>
<path d="M36 50.8333C36.9205 50.8333 37.6667 50.0871 37.6667 49.1667C37.6667 48.2462 36.9205 47.5 36 47.5C35.0795 47.5 34.3333 48.2462 34.3333 49.1667C34.3333 50.0871 35.0795 50.8333 36 50.8333Z" stroke="black" stroke-miterlimit="10" stroke-linecap="round" stroke-linejoin="round"/>
<path d="M46 42.5003C46.9205 42.5003 47.6667 41.7541 47.6667 40.8337C47.6667 39.9132 46.9205 39.167 46 39.167C45.0795 39.167 44.3333 39.9132 44.3333 40.8337C44.3333 41.7541 45.0795 42.5003 46 42.5003Z" stroke="black" stroke-miterlimit="10" stroke-linecap="round" stroke-linejoin="round"/>
<path d="M56 45.8333C56.9205 45.8333 57.6667 45.0871 57.6667 44.1667C57.6667 43.2462 56.9205 42.5 56 42.5C55.0795 42.5 54.3333 43.2462 54.3333 44.1667C54.3333 45.0871 55.0795 45.8333 56 45.8333Z" stroke="black" stroke-miterlimit="10" stroke-linecap="round" stroke-linejoin="round"/>
<path d="M66 34.1668C66.9205 34.1668 67.6667 33.4206 67.6667 32.5002C67.6667 31.5797 66.9205 30.8335 66 30.8335C65.0795 30.8335 64.3333 31.5797 64.3333 32.5002C64.3333 33.4206 65.0795 34.1668 66 34.1668Z" stroke="black" stroke-miterlimit="10" stroke-linecap="round" stroke-linejoin="round"/>
<path d="M37.3333 48.1668L44.6667 41.8335" stroke="black" stroke-miterlimit="10" stroke-linecap="round" stroke-linejoin="round"/>
<path d="M47.5 41.3335L54.5 43.6668" stroke="black" stroke-miterlimit="10" stroke-linejoin="round"/>
<path d="M64.8333 33.8335L57.1667 42.8335" stroke="black" stroke-miterlimit="10" stroke-linecap="round" stroke-linejoin="round"/>
</svg>

<svg width="101" height="100" fill="none" xmlns="http://www.w3.org/2000/svg"><g opacity=".1"><circle cx="50.5" cy="50" r="50" fill="#2F70FE"/><circle cx="50.5" cy="50" r="50" stroke="#2F70FE"/></g><path d="M31.833 69.167h38.334M38.5 60.834h-5v8.333h5v-8.334zm10-8.334h-5v16.667h5V52.5zm10 3.334h-5v13.333h5V55.833zm10-11.667h-5v25h5v-25zM36 50.833a1.667 1.667 0 100-3.333 1.667 1.667 0 000 3.333zM46 42.5a1.667 1.667 0 100-3.333 1.667 1.667 0 000 3.333zm10 3.333a1.667 1.667 0 100-3.333 1.667 1.667 0 000 3.333zm10-11.666a1.667 1.667 0 100-3.334 1.667 1.667 0 000 3.334zm-28.667 14l7.334-6.334" stroke="#000" stroke-miterlimit="10" stroke-linecap="round" stroke-linejoin="round"/><path d="M47.5 41.334l7 2.333" stroke="#000" stroke-miterlimit="10" stroke-linejoin="round"/><path d="M64.833 33.834l-7.666 9" stroke="#000" stroke-miterlimit="10" stroke-linecap="round" stroke-linejoin="round"/></svg>
